X:275
T: Charlie O'Neill's
T: The Donnegal Highland
M: 4/4
L: 1/8
R: highland
K: Emin
A|BEBE cBcA|BEBE cAFA|BEBE cBcB|Addc BGGA|
|BEBE cBcA|BEBE cAFA|BEBE cBcB|Addc BGBd||
|(3gag fg (3BBB BA|G2 ag fdef|(3gag fg (3BBB BA|GBdc BGBd|
|(3gag fg (3BBB BA|G2 ag fdcA|GBdB cdef|gbaf g3 A||
